X: 80
T: The Boys Of Bluehill
B: begged borrowed and stolen
M:4/4
R: polka
Q: 1/4=100
K:Dmajor
V:1 
dB|:"Bm" (3ABA "D"FA D2 FA|"Bm"BG (3Bcd "A" e2 de|"D"fa gf "A7"egfe|"D"dfed "Bm"B2dB|
"Bm"(3ABA "D"FA D2 FA|"Bm7"BA (3Bcd "Em"e2 de|"D"fagf "A7"egfe|1 "D"d2 f2 d2 FA:|2 "D"d2 f2 d2 fg||
|:"D"afdf a2gf|"G"efga b2 ag|"D"fagf "A7"egfe|
"D"dfed "Bm"B2 dB|"Bm" (3ABA "D"FA D2 FA|"Bm7" BA (3Bcd "Em"e2de|"D"fagf "A7"egfe|1 "D"d2 f2 d2 fg:|2 "D"d2 f2 d2 z2||
% abcbook-tune_id 627e2b1fc76191f0c4006a9a


% abcbook-boost 0
% abcbook-tablature 
% abcbook-transpose 
% abcbook-lastupdated 1652725431115
% abcbook-soundfonts 
% abcbook-repeats 3


